X:1
T:Many Gifts, One Spirit
T:Many Gifts, One Spirit
T:Alvin Allison Carmines, Jr.
T:Alvin Allison (Al) Carmines, Jr., 1974
T:© 1974 Al Carmines
T:© 1974 Al Carmines
C:Alvin Allison Carmines, Jr.
Z:© 1974 Al Carmines
%%score 1 ( 2 3 ) 4
L:1/8
Q:1/4=105
M:2/2
K:C
V:1 treble 
V:2 treble 
V:3 treble 
V:4 bass 
V:1
"^C" G2 G2"^G" G2 G2 x |"^C" G4 G4 |"^F" A2 G2"^G" G2 F2 |"^C" E6 z2 |"^E" E2 E2 ^G2 B2 | %5
w: 1.~God of change and|glo- ry,|God of time and|space,|When we fear the|
w: 2.~God of ma- ny|col- ors,|God of ma- ny|signs,|You have made us|
w: 3.~Fresh- ness of the|morn- ing,|new- ness of each|night,|You are still cre-|
"^Am" B4 A4 x4 | c2 B2 A3"^D7" G |"^G" G6 z2 |"^G7" d2 B2 G2 F2 |"^C" E2 F2 G4 | %10
w: fu- ture,|give to us your|grace.|In the midst of|chang- ing ways|
w: dif- ferent,|bless- ing ma- ny|kinds.|As the old ways|dis- ap- pear,|
w: at- ing|end- less love and|light.|This we see, as|sha- dows part,|
"^F" C2 A2"^C" G2"^G7" F2 |"^C" E4"^G7" D4 |"^C" C6 z2 ||"^Refrain""^C" E2 G2 G4 | %14
w: give us still the|grace to|praise.||
w: let your love cast|out our|fear.|Ma- ny gifts,|
w: ma- ny gifts from|one great|heart.||
"^F" A4"^G" G2 F2 |"^C" E2 G2 G2 G2 |"^F" A2 B2"^C" c4 | E2 G2 G2 G2 | F2 E2 D2 C2 | E2 G2 F2 E2 | %20
w: ||||||
w: one Spir- it,|one love known in|ma- ny ways.|In our dif- fer-|ence is bless- ing,|from di- ver- si-|
w: ||||||
 D2 C2"^G" G4 |"^C" c4 G2 E2 | c4 G4 | c4 G2 E2 | c4 G2 z2 | F2 E2 D2 C2 | G6 z2 | F2 E2 D2 C2 | %28
w: ||||||||
w: ty we praise|One Giv- er,|one Lord,|one Spir- it,|one Word|Known in ma- ny|ways,|hal- low- ing our|
w: ||||||||
"^F" A6 z2 | A2 c2 B2 A2 |"^C" G2 E2 c4 | c4"^G7" d4 |"^C" !fermata!c8 |] %33
w: |||||
w: days.|For the Giv- er,|for the gifts,|praise, praise,|praise!|
w: |||||
V:2
 G2 G2 G2 [CE] G2 | [EG]4 G4 | A2 G2 G2 F2 | [G,CE]4 [E,G,]2 [G,C]2 | %4
 [^G,B,E]2 [G,B,E]2 [B,E^G]2 [DEGB]2 | B4 [CE]2 A4 [CE]2 | [EGc]2 [DB]2 A3 G | %7
 [B,DG]2 [G,B,]2 [B,D]2 [B,DG]2 | [FBd]2 [DFB]2 [B,DG]2 [B,DF]2 | [CE]2 [DF]2 [G,EG]4 | %10
 C2 A2 [G,CG]2 [G,B,F]2 | E4 [B,D]4 | [E,G,C]4 [EG]2 [EGc]2 || [Gce]2 [Gceg]2 [Gceg]2 [Gceg]2 | %14
 [Acfa]2 [Acfa]2 [GBdg]2 [FBdf]2 | [Gce]2 [Gceg]2 [Gceg]2 [Gceg]2 | [cfa]2 [cfac']2 [cegc']4 | %17
 [Gce]2 [Gceg]2 [Gceg]2 [Gceg]2 | [Acf]2 [Gce]2 [FGd]2 [EGc]2 | [Gce]2 [Gcg]2 [Gcf]2 [Gce]2 | %20
 [FGd]2 [EGc]2 [GBdg]4 | [cegc']4 [Gceg]2 [Gce]2 | [cegc']4 [Gceg]4 | [cegc']4 [Gceg]2 [Gce]2 | %24
 [cegc']4 [Gceg]4 | [Gcf]2 [Gce]2 [FGd]2 [EGc]2 | [Gceg]4 [Gce]4 | [Fcf]2 [Ece]2 [DGd]2 [CGc]2 | %28
 [Acfa]4 [Acf]4 | [Afa]2 [cac']2 [Bgb]2 [Afa]2 | [Gceg]2 [Gce]2 [cegc']4 | %31
 [cegc']2 [Gceg]2 [dfbd']2 [Bfg]2 | [cegc']4 !fermata![cegc']4 |] %33
V:3
 [CE]4 [B,D][EF]C x2 | C2 G,2 E2 C2 | [CF]4 [B,D]4 | x8 | x8 | [CE]2 [CE]2 x8 | x4 [CD]4 | x8 | %8
 x8 | G,4 x4 | A,4 x4 | C2 G,2 G,2 F,2 | x8 || x8 | x8 | x8 | x8 | x8 | x8 | x8 | x8 | x8 | x8 | %23
 x8 | x8 | x8 | x8 | x8 | x8 | x8 | x8 | x8 | x8 |] %33
V:4
 [C,,C,]4 [G,,D,]4 x | [C,,C,]4 [C,,C,]4 | [F,,F,]4 [G,,D,]4 | [C,,C,]8 | [E,,E,]4 [E,,E,]4 | %5
 [A,,E,]4 [A,,E,]4 x4 | [A,,G,]4 [D,^F,]4 | [G,,D,]8 | [G,,D,F,]4 [G,,D,F,]4 | [C,,C,]4 [C,,C,]4 | %10
 [F,,F,]4 [E,,E,]2 [D,,D,]2 | [C,,C,]4 [G,,D,]4 | [C,,C,]8 || [C,,G,,C,]4 [C,,G,,C,]4 | %14
 [F,,C,F,]4 [G,,D,G,]4 | [C,,G,,C,]2 [C,,G,,C,]2 [C,,G,,C,]2 [C,,G,,C,]2 | [F,,C,F,]4 [C,,G,,C,]4 | %17
 [C,,G,,C,]4 [C,E,G,]4 | [C,,C,]4 [C,G,]4 | [C,,C,]4 [C,,C,]4 | [C,,C,]4 [G,,D,G,]4 | %21
 [C,,G,,C,]4 [C,E,G,]4 | [C,,G,,C,]4 [C,E,G,]4 | [C,,G,,C,]4 [C,E,G,]4 | [C,,G,,C,]4 [C,E,G,]4 | %25
 [C,,G,,C,]4 [C,G,]4 | [C,,G,,C,]4 [C,E,G,]4 | [C,,C,]4 [E,,C,]4 | [F,,C,F,]4 [F,,C,F,]4 | %29
 [F,,C,F,]4 [F,,C,F,]4 | [G,,,G,,]4 [G,,,G,,]4 | [G,,,G,,]4 [G,,,G,,]4 | %32
 [C,,C,]4 !fermata![C,,C,]4 |] %33

